X:1
T:Title
%%score { ( 1 4 ) | ( 2 3 ) }
L:1/8
M:4/4
K:G
V:1 treble nm="Grand Piano"
V:4 treble 
V:2 bass 
V:3 bass 
V:1
 z4 z2[Q:1/4=94] G2 | G2 [EA]2 GFED | z2 [CA]2 z4 | d2 B2 A2 D2 | %4
[M:3/4] [B,EG][DF][K:bass] [G,^CE]2 [F,D]2 |[M:1/4][K:treble] [DA]2 |[M:4/4] [EA]2 GF G2 c2 | %7
 z2 F2 z2 e2 | z4 z2 d2 |[M:7/8] [Ec][DB] [CA]2 [B,G]3 |] %10
V:2
 z4 z2 [G,B,D]2 | [E,B,E]2 [C,C]2 [D,A,D]2 A,F, | z D, .[A,,E,]2 [G,,G,]2 [G,B,D]2 | %3
 [F,A,D]2 [G,D]2 [D,F,D]2 [B,,F,]2 |[M:3/4] z A, A,,2 D,2 |[M:1/4] [D,F,]2 | %6
[M:4/4] [C,A,]2 [B,,B,]2 [E,B,E]2 [A,E]2 | [^D,A,]2 [D,B,]2 [E,B,E]2[K:treble] .[A,CE]2 | %8
 [B,DG]2[K:bass] [F,D]2 [G,D]2 [B,,G,]2 |[M:7/8] [C,G,]2 [D,F,]2 [G,,G,]3 |] %10
V:3
 x8 | z4 z2 C,2 | B,,2 z2 z4 | x8 |[M:3/4] G,,2 z2 z2 |[M:1/4] x2 |[M:4/4] x8 | x6[K:treble] x2 | %8
 x2[K:bass] x6 |[M:7/8] x7 |] %10
V:4
 x8 | x8 | .[G,DG]2 z F, [B,B]2 B2 | x8 |[M:3/4] x2[K:bass] x4 |[M:1/4][K:treble] x2 | %6
[M:4/4] z2 ^D2 z4 | [Fc]2 BA G2 z F | d2 [Ac]2 [GB]2 G=F |[M:7/8] x7 |] %10

